symbolic/32x32/apps/rocksndiamonds.svg

<svg xmlns="http://www.w3.org/2000/svg" width="32" height="32" version="1">
 <path style="opacity:0.2" d="m 14.256775,2.0010003 a 1.2609911,1.2609911 0 0 0 -0.822518,0.349693 L 2.3881439,12.947378 a 1.2609911,1.2609911 0 0 0 -0.348462,1.223926 l 3.09306,12.01639 a 1.2609911,1.2609911 0 0 0 0.870538,0.897627 l 13.3425141,3.865093 a 1.2609911,1.2609911 0 0 0 1.166053,-0.249957 l 10.042594,-8.516996 a 1.2609911,1.2609911 0 0 0 0.442041,-1.055236 L 30.06684,8.6291607 A 1.2609911,1.2609911 0 0 0 29.254173,7.5431424 L 14.751762,2.0810357 a 1.2609911,1.2609911 0 0 0 -0.494987,-0.080035 z"/>
 <path style="fill:#36c53c" d="m 14.256775,1.0010012 a 1.2609911,1.2609911 0 0 0 -0.822518,0.349693 L 2.3881438,11.947378 A 1.2609911,1.2609911 0 0 0 2.039682,13.171304 l 3.0930596,12.01639 a 1.2609911,1.2609911 0 0 0 0.8705386,0.897627 l 13.3425138,3.865093 a 1.2609911,1.2609911 0 0 0 1.166053,-0.249957 l 10.042594,-8.516996 a 1.2609911,1.2609911 0 0 0 0.442041,-1.055236 L 30.06684,7.6291616 A 1.2609911,1.2609911 0 0 0 29.254173,6.5431433 L 14.751762,1.0810366 a 1.2609911,1.2609911 0 0 0 -0.494987,-0.080035 z"/>
 <path style="opacity:0.3;fill:#ffffff" d="m 13.851355,1.0863357 c -0.154957,0.059803 -0.296572,0.1496304 -0.416712,0.2643224 L 2.3883922,11.94783 C 2.2174463,12.11235 2.0963818,12.321759 2.0391089,12.551996 L 9,17 Z"/>
 <path style="opacity:0.1;fill:#ffffff" d="m 14.249187,1.0027235 c -0.13626,0.00617 -0.270616,0.034408 -0.397832,0.083612 L 9,17 25,11 Z"/>
 <path style="opacity:0.05" d="m 14.257279,1.0013749 c -0.0027,4.412e-4 -0.0054,8.912e-4 -0.0081,0.00135 L 25,11 29.898155,7.0888822 C 29.75248,6.8381128 29.524819,6.6452206 29.253531,6.5427062 L 14.752209,1.0809414 c -0.157989,-0.059377 -0.326291,-0.0864338 -0.49493,-0.079566 z"/>
 <path style="opacity:0.1" d="m 2.0391089,12.551996 c -0.051429,0.203129 -0.051429,0.415871 0,0.619 l 3.0936515,12.017231 c 0.049329,0.189554 0.1421365,0.365012 0.2710653,0.512462 L 9,17 Z"/>
 <path style="opacity:0.16000001" d="m 9,17 -3.5961743,8.700689 c 0.1589238,0.183152 0.3672858,0.316598 0.6001198,0.384346 l 13.3415405,3.865041 c 0.138393,0.03949 0.282526,0.055 0.426152,0.04585 z"/>
 <path style="opacity:0.23000004" d="M 25,11 9,17 19.771638,29.995928 c 0.08381,-0.0047 0.166934,-0.01785 0.248139,-0.03911 z"/>
 <path style="opacity:0.3" d="m 25,11 -4.980223,18.956819 c 0.181069,-0.0478 0.349218,-0.135329 0.492234,-0.256231 l 10.042904,-8.517655 c 0.143406,-0.121963 0.257684,-0.274488 0.334449,-0.446382 z"/>
 <path style="opacity:0.22000002" d="M 29.898155,7.0888822 25,11 l 5.889364,9.736551 c 0.08537,-0.190775 0.121978,-0.399778 0.106538,-0.608211 L 30.066728,7.6296643 c -0.01445,-0.1907121 -0.0721,-0.375638 -0.168573,-0.5407821 z"/>
 <path style="opacity:0.2;fill:#ffffff" d="M 14.255859 1.0019531 A 1.2609911 1.2609911 0 0 0 13.433594 1.3515625 L 2.3886719 11.947266 A 1.2609911 1.2609911 0 0 0 2.0390625 13.171875 L 2.09375 13.384766 A 1.2609911 1.2609911 0 0 1 2.3886719 12.947266 L 13.433594 2.3515625 A 1.2609911 1.2609911 0 0 1 14.255859 2.0019531 A 1.2609911 1.2609911 0 0 1 14.751953 2.0800781 L 29.253906 7.5429688 A 1.2609911 1.2609911 0 0 1 30.066406 8.6289062 L 30.953125 20.558594 A 1.2609911 1.2609911 0 0 0 30.996094 20.128906 L 30.066406 7.6289062 A 1.2609911 1.2609911 0 0 0 29.253906 6.5429688 L 14.751953 1.0800781 A 1.2609911 1.2609911 0 0 0 14.255859 1.0019531 z"/>
</svg>

<svg xmlns="http://www.w3.org/2000/svg" width="32" height="32" version="1"><path style="opacity:.2" d="M14.257 2.001a1.261 1.261 0 0 0-.823.35L2.388 12.947a1.261 1.261 0 0 0-.348 1.224l3.093 12.017a1.261 1.261 0 0 0 .87.897l13.343 3.865a1.261 1.261 0 0 0 1.166-.25l10.042-8.517a1.261 1.261 0 0 0 .442-1.055l-.93-12.499a1.261 1.261 0 0 0-.812-1.086L14.752 2.081a1.261 1.261 0 0 0-.495-.08z"/><path style="fill:#36c53c" d="M14.257 1.001a1.261 1.261 0 0 0-.823.35L2.388 11.947a1.261 1.261 0 0 0-.348 1.224l3.093 12.017a1.261 1.261 0 0 0 .87.897l13.343 3.865a1.261 1.261 0 0 0 1.166-.25l10.042-8.517a1.261 1.261 0 0 0 .442-1.055l-.93-12.499a1.261 1.261 0 0 0-.812-1.086L14.752 1.081a1.261 1.261 0 0 0-.495-.08z"/><path style="opacity:.3;fill:#fff" d="M13.851 1.086c-.155.06-.296.15-.416.265L2.388 11.948c-.17.164-.292.374-.349.604L9 17z"/><path style="opacity:.1;fill:#fff" d="M14.25 1.003c-.137.006-.271.034-.399.083L9 17l16-6z"/><path style="opacity:.05" d="m14.257 1.001-.008.002L25 11l4.898-3.911a1.261 1.261 0 0 0-.644-.546L14.752 1.08a1.261 1.261 0 0 0-.495-.08z"/><path style="opacity:.1" d="M2.04 12.552a1.261 1.261 0 0 0 0 .619l3.093 12.017c.05.19.142.365.27.513L9 17z"/><path style="opacity:.16000001" d="m9 17-3.596 8.7c.159.184.367.317.6.385l13.341 3.865c.139.04.283.055.427.046z"/><path style="opacity:.23000004" d="M25 11 9 17l10.772 12.996c.083-.005.167-.018.248-.04z"/><path style="opacity:.3" d="m25 11-4.98 18.957c.18-.048.349-.136.492-.256l10.043-8.518c.143-.122.258-.275.334-.446z"/><path style="opacity:.22000002" d="M29.898 7.089 25 11l5.89 9.737c.085-.191.121-.4.106-.609l-.93-12.498a1.261 1.261 0 0 0-.168-.541z"/><path style="opacity:.2;fill:#fff" d="M14.256 1.002a1.261 1.261 0 0 0-.822.35L2.389 11.947a1.261 1.261 0 0 0-.35 1.225l.055.213a1.261 1.261 0 0 1 .295-.438L13.434 2.352a1.261 1.261 0 0 1 .822-.35 1.261 1.261 0 0 1 .496.078l14.502 5.463a1.261 1.261 0 0 1 .812 1.086l.887 11.93a1.261 1.261 0 0 0 .043-.43l-.93-12.5a1.261 1.261 0 0 0-.812-1.086L14.752 1.08a1.261 1.261 0 0 0-.496-.078z"/></svg>
